!!!OTL: Didn't My Lord Deliver Daniel?
!!!ARE: United States of America
!!!AGN: Negro Spiritual
!!!AMD: Pentatonic
**kern
*>[A,B,A]
*>A
*clefG2
*k[]
*M2/2
*MM120
{8cc\L
8a\J
=1
8cc\
4a/
8g/
8a/
4.cc\
=2
4.ee\
[8ee\
8ee\L]}
{8dd\
8cc\
8a\J
=3
4.dd\
[8dd\
8dd\L]
8dd\
8cc\
8a\J
=4
4.cc\
[8a/
4a/]}
{8cc\L
8a\J
=5
8cc\
4a/
8g/
8a/
4.cc\
=6
4.ee\
([8ee\
8ee\L]
8dd\J)}
{4cc\
=7
8ee\
(4dd\
8a/)
8cc\L
8dd\J
4cc\
=8
2a/}
4r
!! Fine
==||
*>B
{8cc\L
8cc\J
=9
8cc\
4dd\
([8dd\
8dd\L]
8dd\)
8cc\
8cc\J
=10
8cc\
4dd\
[8dd\
4dd\]}
4r
=11
{8cc\L
8cc\
8dd\
8cc\J
8ee\L
8dd\
8cc\
8a\J
=12
2.cc\}
{8a/L
8a/J
=13
8cc\
4dd\
[8dd\
8dd\L]
8dd\
(8dd\
8cc\J)
=14
4dd\
4ee\
(8dd\L
8cc\J)}
{4a/
=15
8cc\
(4cc\
8ee\)
8dd\L
8cc\J
(8a/L
8g/J)
=16
2.a/}
==
*-
